X:1
T:Title
%%score { ( 1 3 ) | ( 2 4 ) }
L:1/8
M:4/4
K:Eb
V:1 treble nm="Grand Piano"
V:3 treble 
V:2 bass 
V:4 bass 
V:1
 z4 z2[Q:1/4=92] [EG][FA] | [GB]<[GB] [GB][GB] [GB] [GB]2 [FA] | G>G GG G3 [DF] | %3
 E>E E[DF] [EG] [GB]2 [Ge] | d>c B=A [DB]2 [EG][F_A] | [GB]<[GB] [GB][GB] [GB] [GB]2 G | %6
 A>G AB c3 d | e>e dc [EGB] [B,EG]2 [G,E] | [B,EG]>[B,FA] [B,EG][A,DF] [G,CE]4 | %9
 [EGB]<[GB] [Ac]<[Ac] [EGB]<[EGB] [EGe]>[EBd] | [EAc]>[EAd] [Ece][EAc] [EGB]3 [B,EG] | %11
 [FA]>[EG] [FA][GB] [Ac][DF][EG]A | [B,GB]>[EGB] [DFB][CE=A] B2- [_AB]2 | %13
 [EGB]<[GB] [Ac]<[Ac] [EGB]<[EGB] [EGe]>[EBd] | [EAc]>[EBd] [Ece][EAc] [EGB]3 [EGB] | %15
 [EAc]>[EBd] [Ece][EAc] [EGB] [B,EG]2 [G,E] |[M:3/4] [B,EG]>[B,FA] [B,EG][A,DF] [G,E]2 |] %17
V:2
 z4 z2 [E,B,][E,B,] | [E,E]<[E,E] [E,E][E,E] [E,E] [E,E]2 [E,B,] | %2
 [E,B,E]>[E,B,E] [E,B,E][E,B,E] [E,B,E]3 [B,,A,] | %3
 [C,G,C]>[C,G,C] [C,G,C][B,,B,] [E,B,] [E,E]2 [C,B,] | %4
 [F,B,F]>[F,EF] [F,DF][F,CE] [B,,B,]2 [E,B,][E,B,] | [E,E]<[E,E] [E,E][E,E] [E,E] [E,E]2 [E,B,E] | %6
 [A,CE]>[A,_DE] [A,CE][A,=DE] [A,EA]3 [A,DA] | [A,CA]>[A,CA] [A,DA][A,EA][K:bass] E, E,2 E, | %8
 B,,>B,, B,,B,, E,4 | E,<E, E,<E, E,<E, E,>G, | A,>A, A,A, E,3 E, | %11
 [B,,B,]>[B,,B,] [B,,B,][B,,B,] [B,,B,][B,,B,] z F | E,>E, F,F, z2 D2 | E,<E, E,<E, E,<E, E,>E, | %14
 A,>A, A,A, E,3 E, | A,>A, A,A, E, E,2 E, |[M:3/4] B,,>B,, B,,B,, E,2 |] %17
V:3
 x8 | x8 | x8 | x8 | x8 | x8 | x8 | x8 | x8 | z/ E3/2- E2 z4 | x8 | x8 | z4 [B,D]2 z2 | %13
 z/ E3/2- E2 z4 | x8 | x8 |[M:3/4] x6 |] %17
V:4
 x8 | x8 | x8 | x8 | x8 | x8 | x8 | x4[K:bass] x4 | x8 | x8 | x8 | z4 z2 [B,,B,]2 | z4 B,,4 | x8 | %14
 x8 | x8 |[M:3/4] x6 |] %17

